X:557
T:Whilst happy in my native Land. Roose.0557
B:Roose MS, poss. Manchester, mid-late 19th century.
Z:Village Music Project 2019 Roger Hare
N:General note - the voice overlay sections might, in at least one case be multiple note headss on
N:the same stem?
M:C|
L:1/8
Q:1/4=120
K:D
"_Sym" "^Maestoso."A2 | A>GF>G A2 A2 | A6 d2 & F2 F>E D2 D2 |\
B3 B A2 G2 & D3 G F2 E2 | [DF]>GG>A B2 c2 |
d3 e f2 d>A | d3 e f2 d>A | B2 G2 E2 c2 & x6 G2 | d3 e d2 "_So"A2 & [AF]3 G [AF]2 |
A>GF>G A2 A2 | A4 z2 d2 | B3 B A2 G2 | G2 F2 z2 F2 |
E>EF>^G A2 B2 | c4 z2 d2 | e2 A2 Ac B^G | (A3 B) A2 "_Sym"d2 |
e2 A2 Ac B^G | (A3 B) A2 "_So"A2 | E>F G>F E2 B2 | A2 G2 F2 G2 |
A2 B2 A2 dF | F2 E2 z2 A,2 | D3 E F2 A2 | G3 F E2 A,2 |
E3 F G2 BG | G2 F2 z2 A2 | d2 d2 d2 A2 | d2 d2 d2 F2 |
G3 A B2 c2 | d3 e f2 d2 | B2 G2 E2 c2 |d3 e d2 F2 |
G3 A B2 c2 | d3 e f2 d2 | B2 G2 E2 c2 | d3 e d2 |]
[fdA]2 | [gdG]2 (b//a//)g3/ f>ac>e | [dAF]2 [dAF]2 [dAF]2 "_So"A2 | A>GF>G A2 A2 | A4 z2 d2 |
B3 B A2 G2 | G2 F2 z2 F2 | E>EF>G A2 B2 | c4 z2 d2 |
e2 A2 Ac B^G | (A3 B) A2 "_Sym"d2 | e2 A2 Ac B^G | (A3 B) A2 "_So"A2 |
E>F G>F E2 B2 | A2 G2 F2 G2 | A2 B2 A2 dF | F2 E2 z2 A,2 |
D3 E F2 A2 | F2 E2 z2 A,2 | E3 F G2 BG | G2 F2 !fermata!A4 |
d2 d2 d2 A2 | d2 d2 d2 F2 | G3 A B2 c2 | d3 e f2 d2 |B2G2E2c2|
d3ed2F2|G3 A B2 c2 | d3 e f2 d2 |B2G2E2c2|
d3 e d2 "^NB2" "_Sy" [fdA]2 | [Ggd]2 (b//a//)g3/ f>ac>e | [dAF]2 [dAF]2 [dAF]2 |]

